X: 37612
T: Smugglers Lullaby
R: barndance
M: 4/4
K: Dmajor
DE FG A2 A2|G2 G2 F2 D2|DE FG A2 A2|d4 A4|DE FG A2 A2|G2 G2 F2 D2|
DE FG A2 D2|E4 D4|d4 F2 D2|E2 E2 F4|DE FG A2 D2|E4 D4|

